!!!!SEGMENT: pl-kk--kk-i-382--061_anonim--offertorium-nro-2.krn
!!!cenid: 18xx:1563
!!!COM: Anonim
!!!COM-rismID:
!!!CDT:
!!!CNT:
!!!OTL: Offertorium Nro 2
!!!PDT:
!!!AGN: Sacred
!!!SMS-siglum: PL-Kk
!!!SMS-shelfmark: Kk.I.382
!!!SMS-shelfwork: 047 W
!!!SMS-variant:
!!!SMS-altvar:
!!!NIFC-rismSourceID: 1001140961
!!!NIFC-islandoraID: pl-kk:6162
!!!URL-pdf-islandora: https://repozytorium.nifc.pl/islandora/object/pl-kk%3A6162/datastream/PDF/view
!!!URL-scan: https://polish.musicsources.pl/pl/lokalizacje/galeria/rekopisy/5994 @EN{Scan on Polish Music Herritage in Open Access Website} @PL{Skany w portalu Dziedzictwo Muzyki Polskiej w otwartym dostępie}
!!!ONB-nifc: UWAGA: Offertoria od skanu 0041 (S/T1), 0113 (T2), 0185 (A/B1), 0262 (B2)
!!!AIN: 1 alto 1 bass 2 tenor
!!!key:
**kern	**text	**kern	**text	**kern	**text	**kern	**text
*part4	*part4	*part3	*part3	*part2	*part2	*part1	*part1
*staff4	*staff4	*staff3	*staff3	*staff2	*staff2	*staff1	*staff1
*Ibass	*	*Itenor	*	*Ialto	*	*Itenor	*
*I"Basso II	*	*I"Tenore II	*	*I"Alto vel Basso I	*	*I"Soprano vel Tenore I.	*
*I'B II	*	*I'T II	*	*I'A vel B I	*	*I'S vel T I	*
*clefF4	*	*clefC4	*	*clefC3	*	*clefC1	*
*k[b-]	*	*k[b-]	*	*k[b-]	*	*k[b-]	*
*F:	*	*F:	*	*F:	*	*F:	*
*M3/2	*	*M3/2	*	*M3/2	*	*M3/2	*
=1	=1	=1	=1	=1	=1	=1	=1
!LO:TX:t=P:problem=all\right&colon; global	!	!LO:TX:t=P:problem=all\right&colon; global	!	!LO:TX:t=P:problem=all\right&colon; global	!	!LO:TX:a:t=P:problem=all\right&colon; global	!
!LO:TX:a:t=De Virginibus.	!	!LO:TX:b:t=de Virginibus.	!	!	!	!	!
!LO:TX:b:t=in F.	!	!LO:TX:a:t=in F.	!	!LO:TX:a:t=de Virginibus	!	!	!
*	*	*	*	*	*	*rscale:1/2	*
*2\right	*	*2\right	*	*2\right	*	*	*
!	!	!	!	!	!	!LO:TX:b:t=in F.	!
!	!	!	!	!	!	!LO:TX:a:t=P:problem=metrum 3/4 [zapisano zgodnie z pozostałymi głosami; użyto *rscale]	!
2F\	Je-	2c\	Je-	2f\	Je-	2a\	Je-
2A\	-su	2c\	-su	2f\	-su	2a\	-su
2F\	co-	2c\	co-	2f\	co-	2a\	co-
=2	=2	=2	=2	=2	=2	=2	=2
*	*	*	*	*	*	*2\right	*
(4c\	-ro-	1c\	-ro-	1e\	-ro-	1g\	-ro-
4d\	.	.	.	.	.	.	.
4c\	.	.	.	.	.	.	.
4B-\)	.	.	.	.	.	.	.
2A\	-na	2c\	-na	2f\	-na	2a\	-na
=3	=3	=3	=3	=3	=3	=3	=3
2B-\	co-	2d\	co-	2f\	co-	2g\	co-
2c\	-ro-	2c\	-ro-	2f\	-ro-	2g\	-ro-
2C/	-na	2c\	-na	2e\	-na	2g\	-na
=4	=4	=4	=4	=4	=4	=4	=4
2.F\	vir-	2.c\	vir-	2.f\	vir-	2.a\	vir-
4F\	-gi-	4c\	-gi-	4f\	-gi-	4a\	-gi-
2F\	-num	2c\	-num	2f\	-num	2a\	-num
!	!	!	!	!LO:LB:g=original	!	!	!
=5	=5	=5	=5	=5	=5	=5	=5
!	!LO:SIC:l:s=quem:v	!	!LO:SIC:l:s=quem:v	!	!	!	!
2D\	que	2F/	que	2d\	quem	2a\	quem
2D\	ma-	2F/	Ma-	2d\	ma-	2a\	Ma-
2E\	-ter	2E/	-ter	2c#X\	-ter	2g\	-ter
!LO:LB:g=original	!	!	!	!	!	!LO:LB:g=original	!
=6	=6	=6	=6	=6	=6	=6	=6
(2F\	il-	2D/	il-	2.c#X\	il-	1a\	il-
2C#X/)	.	1A\	-la	.	.	.	.
.	.	.	.	4e\	.	.	.
2D/	-la	.	.	2f\	-la	2a\	-la
=7	=7	=7	=7	=7	=7	=7	=7
(2G\	con-	(2B-X\	con-	(4e\	con-	(4g\L	con-
.	.	.	.	4d\	.	4f\J	.
2A\)	.	2.A\)	.	2d\)	.	2.e/)	.
2AA/	-ci-	.	.	2c#X\	-ci-	.	.
.	.	4A\	-ci-	.	.	4e/	-ci-
!	!	!LO:LB:g=original	!	!	!	!	!
=8	=8	=8	=8	=8	=8	=8	=8
1.D\	-pit	1.A\	-pit	1.d\	-pit	1.f#X/	-pit,
=9	=9	=9||	=9	=9	=9	=9	=9
!	!LO:SIC:l:s=quae:v	!	!LO:SIC:l:s=quae:v	!LO:TX:b:t=1.	!	!	!LO:SIC:l:s=quae:v
2A\	que	2A/	que	1.r	.	2a\	que
2G\	so-	2G/	so-	.	.	2g\	so-
2Fn\	-la	2F/	-la	.	.	2fn/	-la
=10	=10	=10	=10	=10	=10	=10	=10
!	!LO:SIC:l:s=quae:v	!	!	!	!LO:SIC:l:s=quae:v	!	!
2E\	que	(2c\	vir-	2e\	que	(2cc\	vir-
2D\	so-	2Bn\)	.	2d\	so-	2bn\)	.
2C/	-la	2c\	-go	2c\	-la	2cc\	-go
=11	=11	=11	=11	=11	=11	=11	=11
!	!	!	!LO:SIC:l:s=quae:v	!	!	!	!
(2F\	vir-	2A\	que	(2f\	vir-	1cc\	vir-
2E\)	.	2G/	so-	2e\)	.	.	.
2F\	-go	2F/	-la	2f\	-go	2cc\	-go
!LO:LB:g=original	!	!	!	!LO:LB:g=original	!	!LO:LB:g=original	!
=12	=12	=12	=12	=12	=12	=12	=12
!	!LO:SIC:l:s=quae:v	!	!	!	!	!	!LO:SIC:l:s=quae:v
2E\	que	(2E/	vir-	(2g\	so-	2cc\	que
2D\	so-	2F/)	.	2f\)	.	2bn\	so-
2C/	-la	2G/	-go	2e\	-la	2cc\	-la
=13	=13	=13	=13	=13	=13	=13	=13
1F\	vir-	2F/	vir-	(2c\	vir-	(2a\	vir-
.	.	1G/	-go	2d\)	.	2bn\)	.
2E\	-go	.	.	2g\	-go	2cc\	-go
=14	=14	=14	=14	=14	=14	=14	=14
(2F\	par-	(2A/	par-	(4f\	par-	1cc\	par-
.	.	.	.	4e\	.	.	.
2G\)	.	2.G/)	.	2.d\)	.	.	.
2GG/,<	-tu-	.	.	.	.	2bn\	-tu-
.	.	4G/	-tu-	4d\	-tu-	.	.
=15	=15	=15	=15	=15	=15	=15	=15
1C/	-rit	1G/	-rit	1e\	-rit	1cc\	-rit
!	!LO:SIC:l:s=haec:v	!	!LO:SIC:l:s=haec:v	!	!LO:SIC:l:s=haec:v	!	!LO:SIC:l:s=haec:v
2C#X/	hec	2G/	hec	2e\	hec	2a\	hec
!	!	!LO:LB:g=original	!	!	!	!	!
=16	=16	=16	=16	=16	=16	=16	=16
1C#X/	vo-	1G/	vo-	1e\	vo-	1a\	vo-
!	!	!	!	!LO:TX:a:t=V&colon; S&colon;	!	!	!
2C#/	-ta	2G/	-ta	2e\	-ta	2a\	-ta
!	!	!	!	!LO:PB:g=original	!	!	!
=17	=17	=17	=17	=17	=17	=17	=17
(2D\	cle-	(2F/	cle-	2f\	cle-	(2dd\	cle-
2E\)	.	2E/)	.	2g\	.	2cc#X\)	.
2F\	-mens	2A/	-mens	2f\	-mens	2dd\	-mens
!LO:LB:g=original	!	!	!	!	!	!	!
=18	=18	=18	=18	=18	=18	=18	=18
(2G\	ac-	(2B-X\	ac-	1e\	ac-	1dd\	ac-
2A\)	.	2.A\)	.	.	.	.	.
2AA/	-ci-	.	.	2e\	-ci-	2cc#X\	-ci-
.	.	4A\	-ci-	.	.	.	.
!	!	!	!	!	!	!LO:LB:g=original	!
=19	=19	=19	=19	=19	=19	=19	=19
1D\	-pe	1A\	-pe	1f#X\	-pe	1dd\	-pe
!	!LO:SIC:l:s=quae:v	!	!LO:SIC:l:s=quae:v	!	!LO:SIC:l:s=quae:v	!	!LO:SIC:l:s=quae:v
2F\	que	2A\	que	2cn\	que	2a\	que
=20	=20	=20	=20	=20	=20	=20	=20
1F\	so-	1G/	so-	1d\	so-	1b-X\	so-
2F\	-la	2G/	-la	2d\	-la	2b-\	-la
=21	=21	=21	=21	=21	=21	=21	=21
1F\	vir-	(2A\	vir-	1fn\	vir-	(2cc\	vir-
.	.	2B-X\)	.	.	.	2dd\)	.
2F\	-go	2A\	-go	2f\	-go	2cc\	-go
=22	=22	=22	=22	=22	=22	=22	=22
(2G\	par-	(2d\	par-	(2f\	par-	(2b-X\	par-
2E\)	.	2.c\)	.	2g\)	.	2g\)	.
2F\	-tu-	.	.	2f\	-tu-	2a\	-tu-
.	.	4c\	-tu-	.	.	.	.
=23	=23	=23	=23	=23	=23	=23	=23
!LO:TX:b:t=V&colon; S&colon;	!	!	!	!	!	!	!
1.C/	-rit,	1.c\	-rit	1.e\	-rit	1.g\	-rit
!	!	!LO:LB:g=original	!	!LO:LB:g=original	!	!	!
!LO:PB:g=original	!	!	!	!	!	!	!
=24	=24	=24||	=24	=24	=24	=24	=24
!	!LO:SIC:l:s=haec:v	!	!LO:SIC:l:s=haec:v	!	!LO:SIC:l:s=haec:v	!	!LO:SIC:l:s=haec:v
2A\	hec	2c\	hec	2f\	hec	2cc\	hec
2B-\	vo-	2.B-\	vo-	2f\	vo-	2dd\	vo-
2G\	-ta	.	.	2e\	-ta	2b-\	-ta
.	.	4B-\	-ta	.	.	.	.
=25	=25	=25	=25	=25	=25	=25	=25
1F\	cle-	4A/	cle-	1f\	cle-	(4cc\L	cle-
.	.	4G/	.	.	.	4b-\	.
.	.	4F/	.	.	.	4a\	.
.	.	4G/	.	.	.	4b-\J)	.
2F\	-mens	2A\	-mens	2f\	-mens	2cc\	-mens
!	!	!	!	!	!	!LO:LB:g=original	!
=26	=26	=26	=26	=26	=26	=26	=26
(2B-\	ac-	(2d\	ac-	1f\	ac-	(4b-\L	ac-
.	.	.	.	.	.	4a\J	.
2c\)	.	2.c\)	.	.	.	2g\)	.
2C/	-ci-	.	.	2e\	-ci-	2g\	-ci-
.	.	4c\	-ci-	.	.	.	.
=27	=27	=27	=27	=27	=27	=27	=27
!	!	!LO:TX:b:t=V&colon; S&colon;	!	!	!	!	!
!	!	!LO:TX:a:t=P:problem=po nucie podwójna kreska taktowa, druga kreska pogrubiona	!	!LO:TX:a:t=P:problem=po nucie podwójna kreska taktowa, druga kreska pogrubiona	!	!	!
1.F\	-pe.	1.c\	-pe.	1.f\	-pe.	1.a\	-pe,
!	!	!LO:PB:g=original	!	!	!	!	!
=28||	=28||	=28|!	=28||	=28|!	=28||	=28	=28
2D\	qui	2A\	qui	2f\	qui	2dd\	qui
2F\	per-	2F/	per-	2d\	per-	2a\	per-
2D\	-gis	2A\	-gis	2f\	-gis	2dd\	-gis
=29	=29	=29	=29	=29	=29	=29	=29
(4A\	in-	1A\	in-	1e\	in-	1cc#X\	in-
4B-\	.	.	.	.	.	.	.
4A\	.	.	.	.	.	.	.
4G\)	.	.	.	.	.	.	.
2F\	-ter	2A\	-ter	2a\	-ter	2dd\	-ter
=30	=30	=30	=30	=30	=30	=30	=30
(2G\	in-	(2B-X\	in-	(4g\	in-	1dd\	in-
.	.	.	.	4f\	.	.	.
2A\)	.	2A\)	.	2e\)	.	.	.
!	!	!	!	!	!	!LO:TX:b:t=V&colon; S&colon;	!
2AA/	-ter	2A\	-ter	2e\	-ter	2cc#X\	-ter,
!LO:LB:g=original	!	!	!	!LO:LB:g=original	!	!	!
!	!	!	!	!	!	!LO:PB:g=original	!
=31	=31	=31	=31	=31	=31	=31	=31
2.D\	li-	2.A\	li-	2.f#X\	li-	2.dd\	li-
4D\	-li-	4A\	-li-	4f#\	-li-	4dd\	-li-
2D\	-a	2A\	-a	2f#\	-a	2dd\	-a
=32	=32	=32	=32	=32	=32	=32	=32
2BBn/	se-	2Bn\	se-	2f#X\	se-	2dd\	se-
2BB/	-ptus	2G/	-ptus	2f#\	-ptus	2dd\	-ptus
!	!	!	!	!	!LO:SIC:l:s=cho-:v	!	!LO:SIC:l:s=cho-:v
2BB/	ho-	2G/	ho-	2f#\	ho-	2dd\	ho-
=33	=33	=33	=33	=33	=33	=33	=33
2.C/	-re-	(2G/	-re-	2.e\	-re-	1ccn\	-re
.	.	4A\	.	.	.	.	.
4BBn/	.	4Bn\)	.	8f#X\L	.	.	.
.	.	.	.	8g\J	.	.	.
2AA/	-is	2c\	-is	(4a\	-is	2cc\	is
.	.	.	.	4e\)	.	.	.
=34	=34	=34	=34	=34	=34	=34	=34
1BBn/	vir-	1F#X/	vir-	1e\	vir-	1bn\	vir-
2BB/	-gi-	2F#/	-gi-	2d#X\	-gi-	2b\	-gi-
=35	=35	=35	=35	=35	=35	=35	=35
1.E\	-num	1.G#X/	-num	1.e\	-num	1.bn\	-num
!	!	!LO:LB:g=original	!	!	!	!	!
=36	=36	=36	=36	=36	=36	=36	=36
2G\	spon-	2d\	spon-	2gn\	spon-	2bn\	spon-
2G\	-sus	2d\	-sus	2g\	-sus	2b\	-sus
2Fn\	de-	2d\	de-	2g\	de-	2b\	de-
!	!	!	!	!LO:LB:g=original	!	!LO:LB:g=original	!
=37	=37	=37	=37	=37	=37	=37	=37
1E\	-co-	4e\	-co-	1g\	-co-	1cc\	-co-
.	.	4d\	.	.	.	.	.
.	.	4c\	.	.	.	.	.
.	.	4B-X\	.	.	.	.	.
2F\	-rus	2A\	-rus	2a\	-rus	2cc\	-rus
!LO:LB:g=original	!	!	!	!	!	!	!
=38	=38	=38	=38	=38	=38	=38	=38
1D\	glo-	1A\	glo-	1f\	glo-	1cc\	glo-
2D\	-ri-	2Bn\	-ri-	2f\	-ri-	2bn\	-ri-
=39	=39	=39	=39	=39	=39	=39	=39
1.C/	-a	1.G/	-a	1.e\	-a	1.cc\	-a
=40	=40	=40	=40	=40	=40	=40	=40
2A\	spon-	2A\	spon-	2e\	spon-	2cc\	spon-
2A\	-sis-	2A\	-sis-	2e\	-sis-	2cc\	-sis-
2A\	-que	2A\	-que	2e\	-que	2cc\	-que
=41	=41	=41	=41	=41	=41	=41	=41
!	!	!	!	!	!	!	!LO:SIC:l:s=red-:v
1G#X\	red-	1G#X/	red-	1e\	red-	1bn\	re-
2A\	-dens	2A\	-dens	2e\	-dens	2cc\	-dens
=42	=42	=42	=42	=42	=42	=42	=42
!	!	!	!	!	!	!	!LO:SIC:l:s=red-:v
2.Fn\	red-	(2.Fn/	red-	2.f\	red-	(2.a\	re-
4E\	.	4E/)	.	4g\	.	8bn\L	.
.	.	.	.	.	.	8cc\J)	.
2D\	-dens	2D/	-dens	2a\	-dens	2dd\	-dens
!	!	!	!	!	!	!LO:LB:g=original	!
=43	=43	=43	=43	=43	=43	=43	=43
!	!LO:SIC:l:s=prae-:v	!	!LO:SIC:l:s=prae-:v	!	!LO:SIC:l:s=prae-:v	!	!LO:SIC:l:s=prae-:v
1E\	pre-	1E/	pre-	1a\	pre-	1bn\	pre-
2E\	-mi-	2E/	-mi-	2g#X\	-mi-	2b\	-mi-
!	!	!	!	!LO:LB:g=original	!	!	!
=44	=44	=44	=44	=44	=44	=44	=44
1.AA/	-a.	1.A\	-a.	1.a\	-a,	1.cc#X\	-a
!LO:LB:g=original	!	!LO:LB:g=original	!	!	!	!	!
=45	=45	=45	=45	=45	=45	=45	=45
2c\	spon-	2G/	spon-	2e\	spon-	2een\	spon-
2c\	-sis-	2c\	-sus	2gn\	-sus	2ee\	-sus
2B-X\	-que	2G/	de-	2g\	de-	2dd\	de-
=46	=46	=46	=46	=46	=46	=46	=46
(2A\	red-	1A\	-co-	1fn\	-co-	1ccn\	-co-
2F\)	.	.	.	.	.	.	.
2B-\	-dens	(4B-X\	-rus	2f\	-rus	2dd\	-rus
.	.	4c\)	.	.	.	.	.
=47	=47	=47	=47	=47	=47	=47	=47
!	!LO:SIC:l:s=prae-:v	!	!	!	!	!	!
1G\	pre-	(2.d\	glo-	1f\	glo-	1b-X\	glo-
.	.	4c\)	.	.	.	.	.
2G\	-mi-	2B-X\	-ri-	2e\	-ri-	2b-\	-ri-
=48	=48	=48	=48	=48	=48	=48	=48
1.F\	-a	1.c\	-a	1.f\	-a	1.a\	-a
=49	=49	=49	=49	=49	=49	=49	=49
2F#X\	spon-	2d\	spon-	2a\	spon-	2cc\	spon-
2F#\	-sis-	2d\	-sis-	2a\	-sis-	2cc\	-sis-
2F#\	-que	2c\	-que	2a\	-que	2cc\	-que
!	!	!	!	!LO:LB:g=original	!	!LO:LB:g=original	!
=50	=50	=50	=50	=50	=50	=50	=50
!	!	!	!	!	!	!	!LO:SIC:l:s=red-:v
2.G\	red-	(2B-X\	red-	(4g\	red-	4b-\L	re-
.	.	.	.	4d\	.	4a\	.
.	.	2G/)	.	4e\	.	4b-\	.
4Fn\	.	.	.	4f\)	.	4cc\J	.
4E\	.	(4c\	-dens	(4g\	-dens	(4dd\L	-dens
4D\	.	4B-\)	.	4f\)	.	4ff\J)	.
!LO:LB:g=original	!	!	!	!	!	!	!
=51	=51	=51	=51	=51	=51	=51	=51
!	!	!	!	!	!	!	!LO:SIC:l:s=red-:v
1C#X/	.	1A\	red-	1e\	red-	1een\	re-
2D\	-dens	2A\	-dens	2f\	-dens	2dd\	-dens
=52	=52	=52	=52	=52	=52	=52	=52
!	!LO:SIC:l:s=prae-:v	!	!LO:SIC:l:s=prae-:v	!	!LO:SIC:l:s=prae-:v	!	!LO:SIC:l:s=prae-:v
(2G\	pre-	2B-X\	pre-	1e\	pre-	1dd\	pre-
2A\)	.	2.A\	.	.	.	.	.
2AA/	-mi-	.	.	2e\	-mi-	2cc#X\	-mi-
.	.	4A\	-mi-	.	.	.	.
=53	=53	=53	=53	=53	=53	=53	=53
1.D\	-a.	1.A\	-a.	1.f#X\	-a.	1.dd\	-a.
==	==	==	==	==	==	==	==
*-	*-	*-	*-	*-	*-	*-	*-
!!!system-decoration: [(s1,s2,s3,s4)]
!!!RDF**kern: < = below
!!!ENC: Zofia Niedbalska
!!!END: 2021-03-26
!!!ENC: Andrzej Kubiczek
!!!END: 2021-01-31
